svgs/duotone/expand.svg

<svg xmlns="http://www.w3.org/2000/svg" viewBox="0 0 448 512"><!-- Font Awesome Pro 6.0.0-alpha2 by @fontawesome - https://fontawesome.com License - https://fontawesome.com/license (Commercial License) --><defs><style>.fa-secondary{opacity:.4}</style></defs><path d="M416 32H320C302.312 32 288 46.312 288 64S302.312 96 320 96H384V160C384 177.688 398.312 192 416 192S448 177.688 448 160V64C448 46.312 433.688 32 416 32ZM128 416H64V352C64 334.312 49.688 320 32 320S0 334.312 0 352V448C0 465.688 14.312 480 32 480H128C145.688 480 160 465.688 160 448S145.688 416 128 416Z" class="fa-secondary"/><path d="M128 32H32C14.312 32 0 46.312 0 64V160C0 177.688 14.312 192 32 192S64 177.688 64 160V96H128C145.688 96 160 81.688 160 64S145.688 32 128 32ZM416 320C398.312 320 384 334.312 384 352V416H320C302.312 416 288 430.312 288 448S302.312 480 320 480H416C433.688 480 448 465.688 448 448V352C448 334.312 433.688 320 416 320Z" class="fa-primary"/></svg>

<svg xmlns="http://www.w3.org/2000/svg" viewBox="0 0 448 512"><!--! Font Awesome Pro 6.4.0 by @fontawesome - https://fontawesome.com License - https://fontawesome.com/license (Commercial License) Copyright 2023 Fonticons, Inc. --><defs><style>.fa-secondary{opacity:.4}</style></defs><path class="fa-primary" d="M0 64C0 46.3 14.3 32 32 32h96c17.7 0 32 14.3 32 32s-14.3 32-32 32H64v64c0 17.7-14.3 32-32 32s-32-14.3-32-32V64zM416 320c17.7 0 32 14.3 32 32v96c0 17.7-14.3 32-32 32H320c-17.7 0-32-14.3-32-32s14.3-32 32-32h64V352c0-17.7 14.3-32 32-32z"/><path class="fa-secondary" d="M448 64c0-17.7-14.3-32-32-32H320c-17.7 0-32 14.3-32 32s14.3 32 32 32h64v64c0 17.7 14.3 32 32 32s32-14.3 32-32V64zM32 320c-17.7 0-32 14.3-32 32v96c0 17.7 14.3 32 32 32h96c17.7 0 32-14.3 32-32s-14.3-32-32-32H64V352c0-17.7-14.3-32-32-32z"/></svg>
